setup-data/footprints/images/Ic-package-DPAK.svg

<?xml version="1.0" encoding="UTF-8" standalone="no"?>
<!-- Created with Inkscape (http://www.inkscape.org/) -->
<svg
   xmlns:dc="http://purl.org/dc/elements/1.1/"
   xmlns:cc="http://web.resource.org/cc/"
   xmlns:rdf="http://www.w3.org/1999/02/22-rdf-syntax-ns#"
   xmlns:svg="http://www.w3.org/2000/svg"
   xmlns="http://www.w3.org/2000/svg"
   xmlns:sodipodi="http://sodipodi.sourceforge.net/DTD/sodipodi-0.dtd"
   xmlns:inkscape="http://www.inkscape.org/namespaces/inkscape"
   width="75"
   height="75"
   id="svg3392"
   sodipodi:version="0.32"
   inkscape:version="0.45.1"
   sodipodi:docbase="/home/zymos/chip/package/homemade/next"
   sodipodi:docname="ic-package-DPAK.svg"
   inkscape:output_extension="org.inkscape.output.svg.inkscape"
   version="1.0">
  <defs
     id="defs3394" />
  <sodipodi:namedview
     id="base"
     pagecolor="#ffffff"
     bordercolor="#666666"
     borderopacity="1.0"
     gridtolerance="10000"
     guidetolerance="10"
     objecttolerance="10"
     inkscape:pageopacity="0.0"
     inkscape:pageshadow="2"
     inkscape:zoom="1.4"
     inkscape:cx="141.69268"
     inkscape:cy="62.857143"
     inkscape:document-units="px"
     inkscape:current-layer="layer1"
     inkscape:window-width="697"
     inkscape:window-height="581"
     inkscape:window-x="471"
     inkscape:window-y="74"
     width="75px"
     height="75px" />
  <metadata
     id="metadata3397">
    <rdf:RDF>
      <cc:Work
         rdf:about="">
        <dc:format>image/svg+xml</dc:format>
        <dc:type
           rdf:resource="http://purl.org/dc/dcmitype/StillImage" />
      </cc:Work>
    </rdf:RDF>
  </metadata>
  <g
     inkscape:label="Layer 1"
     inkscape:groupmode="layer"
     id="layer1">
    <g
       id="g3370"
       transform="translate(94.464286,5565.7143)">
      <path
         sodipodi:nodetypes="ccccccccc"
         id="path3330"
         d="M -75.863261,-5543.895 L -56.165291,-5519.1462 L -52.882291,-5521.4191 C -53.048151,-5527.0566 -50.822461,-5530.3025 -42.275691,-5527.2274 L -29.648781,-5534.2985 L -51.367061,-5556.7744 L -61.468591,-5551.2186 C -61.085271,-5544.5703 -64.800121,-5543.1379 -71.822651,-5545.9152 L -75.863261,-5543.895 z "
         style="fill:none;fill-rule:evenodd;stroke:#000000;stroke-width:1px;stroke-linecap:butt;stroke-linejoin:miter;stroke-opacity:1" />
      <path
         id="path3332"
         d="M -56.165291,-5519.3988 L -55.155131,-5506.7718 L -26.113251,-5523.9444 L -26.113251,-5532.5307 L -29.648781,-5534.551"
         style="fill:none;fill-rule:evenodd;stroke:#000000;stroke-width:1px;stroke-linecap:butt;stroke-linejoin:miter;stroke-opacity:1" />
      <path
         id="path3334"
         d="M -26.160711,-5532.6083 L -46.696431,-5554.0369 L -51.160711,-5556.6262 L -51.250001,-5556.269 L -51.250001,-5556.269"
         style="fill:none;fill-rule:evenodd;stroke:#000000;stroke-width:1px;stroke-linecap:butt;stroke-linejoin:miter;stroke-opacity:1" />
      <path
         sodipodi:nodetypes="cccc"
         id="path3336"
         d="M -25.892861,-5524.4834 L -23.660711,-5525.9119 L -23.571431,-5529.5726 L -25.982141,-5527.9654"
         style="fill:none;fill-rule:evenodd;stroke:#000000;stroke-width:1px;stroke-linecap:butt;stroke-linejoin:miter;stroke-opacity:1" />
      <path
         id="path3338"
         d="M -23.482141,-5529.6619 L -24.732141,-5534.8405 L -37.946431,-5548.2333 L -42.053571,-5549.5726"
         style="fill:none;fill-rule:evenodd;stroke:#000000;stroke-width:1px;stroke-linecap:butt;stroke-linejoin:miter;stroke-opacity:1" />
      <path
         id="path3340"
         d="M -52.767851,-5521.6262 L -52.053571,-5512.4297 L -43.035711,-5518.144 L -42.321431,-5518.8583 L -41.785711,-5518.9476 L -42.142851,-5526.9833"
         style="fill:none;fill-rule:evenodd;stroke:#000000;stroke-width:1px;stroke-linecap:butt;stroke-linejoin:miter;stroke-opacity:1" />
      <path
         sodipodi:nodetypes="cc"
         id="path3342"
         d="M -51.964281,-5512.6083 C -49.459821,-5522.3436 -41.868241,-5519.165 -41.785711,-5519.1262"
         style="fill:none;fill-rule:evenodd;stroke:#000000;stroke-width:1px;stroke-linecap:butt;stroke-linejoin:miter;stroke-opacity:1" />
      <path
         transform="translate(104.19643,-4764.3455)"
         d="M -161.07142 -769.91461 A 3.0803571 2.8125 0 1 1  -167.23214,-769.91461 A 3.0803571 2.8125 0 1 1  -161.07142 -769.91461 z"
         sodipodi:ry="2.8125"
         sodipodi:rx="3.0803571"
         sodipodi:cy="-769.91461"
         sodipodi:cx="-164.15178"
         id="path3344"
         style="fill:none;fill-opacity:1;fill-rule:nonzero;stroke:#000000;stroke-width:1;stroke-miterlimit:4;stroke-dasharray:none;stroke-opacity:1"
         sodipodi:type="arc" />
      <path
         sodipodi:nodetypes="cc"
         id="path3346"
         d="M -62.589281,-5535.5547 C -58.409891,-5536.5764 -57.877521,-5534.8091 -57.678571,-5532.7869"
         style="fill:none;fill-rule:evenodd;stroke:#000000;stroke-width:1px;stroke-linecap:butt;stroke-linejoin:miter;stroke-opacity:1" />
      <path
         id="path3348"
         d="M -75.803571,-5543.8583 L -76.071431,-5534.8405"
         style="fill:none;fill-rule:evenodd;stroke:#000000;stroke-width:1px;stroke-linecap:butt;stroke-linejoin:miter;stroke-opacity:1" />
      <path
         id="path3350"
         d="M -55.357141,-5506.9833 L -61.250001,-5513.9476"
         style="fill:none;fill-rule:evenodd;stroke:#000000;stroke-width:1px;stroke-linecap:butt;stroke-linejoin:miter;stroke-opacity:1" />
      <path
         id="path3352"
         d="M -69.285711,-5531.4476 L -72.857141,-5536.0012 L -78.392851,-5533.4119 L -79.642851,-5530.5547 L -79.464281,-5524.0369 L -80.714281,-5522.6083 L -86.517851,-5519.8405 L -83.928571,-5516.894 L -78.125001,-5520.1083 L -77.321431,-5521.5369 L -77.321431,-5526.894 L -75.892851,-5529.4833 L -69.285711,-5531.4476 z "
         style="fill:none;fill-rule:evenodd;stroke:#000000;stroke-width:1px;stroke-linecap:butt;stroke-linejoin:miter;stroke-opacity:1" />
      <path
         id="path3354"
         d="M -86.696431,-5519.9297 L -86.875001,-5517.2512 L -84.107141,-5514.9297 L -76.517851,-5518.9476 L -75.357141,-5521.269 L -75.357141,-5525.644 L -74.285711,-5527.6976 L -69.464281,-5528.9476 L -69.375001,-5531.269"
         style="fill:none;fill-rule:evenodd;stroke:#000000;stroke-width:1px;stroke-linecap:butt;stroke-linejoin:miter;stroke-opacity:1" />
      <path
         id="path3356"
         d="M -84.107141,-5517.3405 L -84.107141,-5515.019"
         style="fill:none;fill-rule:evenodd;stroke:#000000;stroke-width:1px;stroke-linecap:butt;stroke-linejoin:miter;stroke-opacity:1" />
      <path
         id="path3358"
         d="M -58.883921,-5517.8762 L -62.455351,-5522.4297 L -67.991061,-5519.8405 L -69.241061,-5516.9833 L -69.062491,-5510.4655 L -70.312491,-5509.0369 L -76.116061,-5506.269 L -73.526781,-5503.3226 L -67.723211,-5506.5369 L -66.919641,-5507.9655 L -66.919641,-5513.3226 L -65.491061,-5515.9119 L -58.883921,-5517.8762 z "
         style="fill:none;fill-rule:evenodd;stroke:#000000;stroke-width:1px;stroke-linecap:butt;stroke-linejoin:miter;stroke-opacity:1" />
      <path
         id="path3360"
         d="M -76.294641,-5506.3583 L -76.473211,-5503.6797 L -73.705351,-5501.3583 L -66.116061,-5505.3762 L -64.955351,-5507.6976 L -64.955351,-5512.0726 L -63.883921,-5514.1262 L -59.062491,-5515.3762 L -58.973211,-5517.6976"
         style="fill:none;fill-rule:evenodd;stroke:#000000;stroke-width:1px;stroke-linecap:butt;stroke-linejoin:miter;stroke-opacity:1" />
      <path
         id="path3362"
         d="M -73.705351,-5503.769 L -73.705351,-5501.4476"
         style="fill:none;fill-rule:evenodd;stroke:#000000;stroke-width:1px;stroke-linecap:butt;stroke-linejoin:miter;stroke-opacity:1" />
      <path
         id="path3364"
         d="M -64.084811,-5524.6914 L -67.656241,-5529.2449 L -73.191951,-5526.6557 L -74.441951,-5523.7985 L -74.263381,-5517.2807 L -75.513381,-5515.8521 L -81.316951,-5513.0842 L -78.727671,-5510.1378 L -72.924101,-5513.3521 L -72.120531,-5514.7807 L -72.120531,-5520.1378 L -70.691951,-5522.7271 L -64.084811,-5524.6914 z "
         style="fill:none;fill-rule:evenodd;stroke:#000000;stroke-width:1px;stroke-linecap:butt;stroke-linejoin:miter;stroke-opacity:1" />
      <path
         id="path3366"
         d="M -81.495531,-5513.1735 L -81.674101,-5510.4949 L -78.906241,-5508.1735 L -71.316951,-5512.1914 L -70.156241,-5514.5128 L -70.156241,-5518.8878 L -69.084811,-5520.9414 L -64.263381,-5522.1914 L -64.174101,-5524.5128"
         style="fill:none;fill-rule:evenodd;stroke:#000000;stroke-width:1px;stroke-linecap:butt;stroke-linejoin:miter;stroke-opacity:1" />
      <path
         id="path3368"
         d="M -78.906241,-5510.5842 L -78.906241,-5508.2628"
         style="fill:none;fill-rule:evenodd;stroke:#000000;stroke-width:1px;stroke-linecap:butt;stroke-linejoin:miter;stroke-opacity:1" />
    </g>
  </g>
</svg>

<?xml version="1.0" encoding="UTF-8" standalone="no"?>
<svg
   xmlns:dc="http://purl.org/dc/elements/1.1/"
   xmlns:cc="http://creativecommons.org/ns#"
   xmlns:rdf="http://www.w3.org/1999/02/22-rdf-syntax-ns#"
   xmlns:svg="http://www.w3.org/2000/svg"
   xmlns="http://www.w3.org/2000/svg"
   xmlns:sodipodi="http://sodipodi.sourceforge.net/DTD/sodipodi-0.dtd"
   xmlns:inkscape="http://www.inkscape.org/namespaces/inkscape"
   width="297.5787"
   height="266.55103"
   id="svg3392"
   sodipodi:version="0.32"
   inkscape:version="1.0beta2 (2b71d25, 2019-12-03)"
   sodipodi:docname="Ic-package-DPAK.svg"
   inkscape:output_extension="org.inkscape.output.svg.inkscape"
   version="1.0">
  <defs
     id="defs3394" />
  <sodipodi:namedview
     lock-margins="true"
     id="base"
     pagecolor="#ffffff"
     bordercolor="#666666"
     borderopacity="1.0"
     gridtolerance="10000"
     guidetolerance="10"
     objecttolerance="10"
     inkscape:pageopacity="0.0"
     inkscape:pageshadow="2"
     inkscape:zoom="1.4"
     inkscape:cx="114.38435"
     inkscape:cy="186.57659"
     inkscape:document-units="px"
     inkscape:current-layer="layer1"
     inkscape:window-width="1920"
     inkscape:window-height="1035"
     inkscape:window-x="1440"
     inkscape:window-y="23"
     width="75px"
     height="75px"
     inkscape:document-rotation="0"
     showgrid="false"
     inkscape:window-maximized="0"
     fit-margin-top="20"
     fit-margin-left="20"
     fit-margin-right="20"
     fit-margin-bottom="20" />
  <metadata
     id="metadata3397">
    <rdf:RDF>
      <cc:Work
         rdf:about="">
        <dc:format>image/svg+xml</dc:format>
        <dc:type
           rdf:resource="http://purl.org/dc/dcmitype/StillImage" />
        <dc:title></dc:title>
      </cc:Work>
    </rdf:RDF>
  </metadata>
  <g
     inkscape:label="Layer 1"
     inkscape:groupmode="layer"
     id="layer1"
     transform="translate(109.51851,96.638843)">
    <g
       id="g3370"
       transform="matrix(4,0,0,4,260.0446,22152.948)">
      <path
         sodipodi:nodetypes="ccccccccc"
         id="path3330"
         d="m -75.863261,-5543.895 19.69797,24.7488 3.283,-2.2729 c -0.16586,-5.6375 2.05983,-8.8834 10.6066,-5.8083 l 12.62691,-7.0711 -21.71828,-22.4759 -10.10153,5.5558 c 0.38332,6.6483 -3.33153,8.0807 -10.35406,5.3034 z"
         style="fill:none;fill-rule:evenodd;stroke:#000000;stroke-width:1px;stroke-linecap:butt;stroke-linejoin:miter;stroke-opacity:1"
         inkscape:connector-curvature="0" />
      <path
         id="path3332"
         d="m -56.165291,-5519.3988 1.01016,12.627 29.04188,-17.1726 v -8.5863 l -3.53553,-2.0203"
         style="fill:none;fill-rule:evenodd;stroke:#000000;stroke-width:1px;stroke-linecap:butt;stroke-linejoin:miter;stroke-opacity:1"
         inkscape:connector-curvature="0" />
      <path
         id="path3334"
         d="m -26.160711,-5532.6083 -20.53572,-21.4286 -4.46428,-2.5893 -0.08929,0.3572 v 0"
         style="fill:none;fill-rule:evenodd;stroke:#000000;stroke-width:1px;stroke-linecap:butt;stroke-linejoin:miter;stroke-opacity:1"
         inkscape:connector-curvature="0" />
      <path
         sodipodi:nodetypes="cccc"
         id="path3336"
         d="m -25.892861,-5524.4834 2.23215,-1.4285 0.08928,-3.6607 -2.41071,1.6072"
         style="fill:none;fill-rule:evenodd;stroke:#000000;stroke-width:1px;stroke-linecap:butt;stroke-linejoin:miter;stroke-opacity:1"
         inkscape:connector-curvature="0" />
      <path
         id="path3338"
         d="m -23.482141,-5529.6619 -1.25,-5.1786 -13.21429,-13.3928 -4.10714,-1.3393"
         style="fill:none;fill-rule:evenodd;stroke:#000000;stroke-width:1px;stroke-linecap:butt;stroke-linejoin:miter;stroke-opacity:1"
         inkscape:connector-curvature="0" />
      <path
         id="path3340"
         d="m -52.767851,-5521.6262 0.71428,9.1965 9.01786,-5.7143 0.71428,-0.7143 0.53572,-0.089 -0.35714,-8.0357"
         style="fill:none;fill-rule:evenodd;stroke:#000000;stroke-width:1px;stroke-linecap:butt;stroke-linejoin:miter;stroke-opacity:1"
         inkscape:connector-curvature="0" />
      <path
         sodipodi:nodetypes="cc"
         id="path3342"
         d="m -51.964281,-5512.6083 c 2.50446,-9.7353 10.09604,-6.5567 10.17857,-6.5179"
         style="fill:none;fill-rule:evenodd;stroke:#000000;stroke-width:1px;stroke-linecap:butt;stroke-linejoin:miter;stroke-opacity:1"
         inkscape:connector-curvature="0" />
      <path
         inkscape:connector-curvature="0"
         d=""
         transform="translate(104.19643,-4764.3455)"
         id="path3344"
         style="fill:none;fill-opacity:1;fill-rule:nonzero;stroke:#000000;stroke-width:1;stroke-miterlimit:4;stroke-dasharray:none;stroke-opacity:1"
         cx="-164.15178"
         cy="-769.91461"
         rx="3.0803571"
         ry="2.8125" />
      <path
         sodipodi:nodetypes="cc"
         id="path3346"
         d="m -62.589281,-5535.5547 c 4.17939,-1.0217 4.71176,0.7456 4.91071,2.7678"
         style="fill:none;fill-rule:evenodd;stroke:#000000;stroke-width:1px;stroke-linecap:butt;stroke-linejoin:miter;stroke-opacity:1"
         inkscape:connector-curvature="0" />
      <path
         id="path3348"
         d="m -75.803571,-5543.8583 -0.26786,9.0178"
         style="fill:none;fill-rule:evenodd;stroke:#000000;stroke-width:1px;stroke-linecap:butt;stroke-linejoin:miter;stroke-opacity:1"
         inkscape:connector-curvature="0" />
      <path
         id="path3350"
         d="m -55.357141,-5506.9833 -5.89286,-6.9643"
         style="fill:none;fill-rule:evenodd;stroke:#000000;stroke-width:1px;stroke-linecap:butt;stroke-linejoin:miter;stroke-opacity:1"
         inkscape:connector-curvature="0" />
      <path
         id="path3352"
         d="m -69.285711,-5531.4476 -3.57143,-4.5536 -5.53571,2.5893 -1.25,2.8572 0.17857,6.5178 -1.25,1.4286 -5.80357,2.7678 2.58928,2.9465 5.80357,-3.2143 0.80357,-1.4286 v -5.3571 l 1.42858,-2.5893 z"
         style="fill:none;fill-rule:evenodd;stroke:#000000;stroke-width:1px;stroke-linecap:butt;stroke-linejoin:miter;stroke-opacity:1"
         inkscape:connector-curvature="0" />
      <path
         id="path3354"
         d="m -86.696431,-5519.9297 -0.17857,2.6785 2.76786,2.3215 7.58929,-4.0179 1.16071,-2.3214 v -4.375 l 1.07143,-2.0536 4.82143,-1.25 0.08928,-2.3214"
         style="fill:none;fill-rule:evenodd;stroke:#000000;stroke-width:1px;stroke-linecap:butt;stroke-linejoin:miter;stroke-opacity:1"
         inkscape:connector-curvature="0" />
      <path
         id="path3356"
         d="m -84.107141,-5517.3405 v 2.3215"
         style="fill:none;fill-rule:evenodd;stroke:#000000;stroke-width:1px;stroke-linecap:butt;stroke-linejoin:miter;stroke-opacity:1"
         inkscape:connector-curvature="0" />
      <path
         id="path3358"
         d="m -58.883921,-5517.8762 -3.57143,-4.5535 -5.53571,2.5892 -1.25,2.8572 0.17857,6.5178 -1.25,1.4286 -5.80357,2.7679 2.58928,2.9464 5.80357,-3.2143 0.80357,-1.4286 v -5.3571 l 1.42858,-2.5893 z"
         style="fill:none;fill-rule:evenodd;stroke:#000000;stroke-width:1px;stroke-linecap:butt;stroke-linejoin:miter;stroke-opacity:1"
         inkscape:connector-curvature="0" />
      <path
         id="path3360"
         d="m -76.294641,-5506.3583 -0.17857,2.6786 2.76786,2.3214 7.58929,-4.0179 1.16071,-2.3214 v -4.375 l 1.07143,-2.0536 4.82143,-1.25 0.08928,-2.3214"
         style="fill:none;fill-rule:evenodd;stroke:#000000;stroke-width:1px;stroke-linecap:butt;stroke-linejoin:miter;stroke-opacity:1"
         inkscape:connector-curvature="0" />
      <path
         id="path3362"
         d="m -73.705351,-5503.769 v 2.3214"
         style="fill:none;fill-rule:evenodd;stroke:#000000;stroke-width:1px;stroke-linecap:butt;stroke-linejoin:miter;stroke-opacity:1"
         inkscape:connector-curvature="0" />
      <path
         id="path3364"
         d="m -64.084811,-5524.6914 -3.57143,-4.5535 -5.53571,2.5892 -1.25,2.8572 0.17857,6.5178 -1.25,1.4286 -5.80357,2.7679 2.58928,2.9464 5.80357,-3.2143 0.80357,-1.4286 v -5.3571 l 1.42858,-2.5893 z"
         style="fill:none;fill-rule:evenodd;stroke:#000000;stroke-width:1px;stroke-linecap:butt;stroke-linejoin:miter;stroke-opacity:1"
         inkscape:connector-curvature="0" />
      <path
         id="path3366"
         d="m -81.495531,-5513.1735 -0.17857,2.6786 2.76786,2.3214 7.58929,-4.0179 1.16071,-2.3214 v -4.375 l 1.07143,-2.0536 4.82143,-1.25 0.08928,-2.3214"
         style="fill:none;fill-rule:evenodd;stroke:#000000;stroke-width:1px;stroke-linecap:butt;stroke-linejoin:miter;stroke-opacity:1"
         inkscape:connector-curvature="0" />
      <path
         id="path3368"
         d="m -78.906241,-5510.5842 v 2.3214"
         style="fill:none;fill-rule:evenodd;stroke:#000000;stroke-width:1px;stroke-linecap:butt;stroke-linejoin:miter;stroke-opacity:1"
         inkscape:connector-curvature="0" />
    </g>
  </g>
</svg>
